X:963
T:Carolan's welcome
R:Waltz
O:Ireland
C:Turlough Carolan
D:Chieftains
B:The Complete Works of O'Carolan n171
B:The Waltz Book
S:The Complete Works of O'Carolan n171
Z:Transcription, arrangement, chords:Mike Long
M:3/4
L:1/8
K:C
c>B|\
"Am"A2 c>d e2|A2 c>d e2|"Dm"d>edcBA|{GA}"G"B2 G2 E2|\
{B}"Am"c3 B A2|{c}"G"d3 c B2|"Em"ce E2G2|"Am"A4||
c>B|\
"Am"A2 c>d e2|A2 c>d e2|"Dm"d>edcBA|{GA}"G"B2 G2 E2|\
{^f}"C"g3 =f e2|{^g}"F"a3 =g ed|"Em"cedcBc|"Am"A4|]
"Am"e2 a>b c'2|e2 a>b c'2|"F"c'ba"(G)"gab|"C"c'2 e2 e2|\
"Dm"f2 afed|"Am"e2 gedc|"G"d2 e2 g2|"F"Ha4|
"F"ageg a2|"C"gede g2|"Am"edcdec|"G"d2 B2 G2|\
{B}"C"c3 B A2|{c}"Dm"d3 c B2|"Em"ce E2 G2 |"Am"A4|]
